X: 34768
T: Road To Nowhere, The
R: jig
M: 6/8
K: Dmajor
|:FED ded|BAF AFE|FED ded|BAF ~E3|
FED ded|BAF AFE|~F3 AFE|FAD ~D3:|
|:~F3 d2 e|fbf afa|baf afe|dBB BAG|
~F3 d2 e|fbf afa|baf afe|fdc d2 B:|

